!!!COM: Carl Loewe				
!!!CNT: Deutscher				
!!!TXO: Deutsch				
!!!OTL: "O su2sse Mutter"				
!!!LYR: Ruckert					 			
!!!OPS: Op. 62 				
!!!ONM: No. 3 			
!!!ENC: O'Neal Douglas 					
!!!YOR: Twelve Songs and Ballads Vol. 1 and 2				
!!!YOR: New York:Schirmer, 1903					
!!!ODT: 1837/					
!!NB: Vocal melody and text encoded.
**kern	**text
*staff1	*staff1
=1-	=1-
*clefG2	*
*k[b-e-a-]	*
*M3/4	*
*MM120	*
2.r	.
=2	=2
4r	.
8r	.
{8b-	{O
8b-	su2-
8b-	-sse
=3	=3
(8b-	Mut-
8cc)	|
8a-	-ter,
8a-	ich
8a-	kann
8a-	nicht
=4	=4
(8a-	spin-
8b-)	|
8g	-nen,
8g	ich
8g	kann
8g	nicht
=5	=5
(8g	sit-
8a-)	|
8f	-zen
8f	im
8f	Stu2b-
8f	-lein
=6	=6
(8f	in-
8g)	|
4e-	-nen
4r	.
=7	=7
4d	im
4a-	en-
4g	-gen
=8	=8
4f}	Haus;}
8r	.
{8b-	{es
8b-	stockt
8b-	das
=9	=9
(8b-	Ra2d-
8an)	|
8a	-chen
8a	es
8a	reisst
8a	das
=10	=10
(8an	Fa2d-
8a-)	|
8a-	-chen
8a-	o
8a-	su2-
8a-	-sse
=11	=11
(8a-	Mut-
8g)	|
8g	-ter,
8g	o
8g	su2-
8g	-sse
=12	=12
(4g	Mut-
4f)	|
4e-	-ter,
=13	=13
4d	ich
4a-	muss
4g	hin-
=14	=14
4f}	-aus!}
4r	.
4r	.
=15	=15
2.r	.
=16	=16
2.r	.
=17	=17
2.r	.
=18	=18
4r	.
8r	.
{8b-	{Der
8an	Fru2h-
8b-	-ling
=19	=19
8cc	gu-
8dd	-cket
4ee-	hell
8an	durch
8a	die
=20	=20
4cc	Schei-
8b-	-ben;
8b-	wer
8an	kann
8b-	nun
=21	=21
8cc	sit-
8dd	-zen,
4ee-	wer
8an	kann
8a	nun
=22	=22
4cc	blei-
4b-	-ben
4r	.
=23	=23
4f	und
4a-	flei-
4g	-ssig
=24	=24
4f}	sein?}
4r	.
4r	.
=25	=25
2.r	.
=26	=26
4r	.
8r	.
{8b-	{O
8b-	lass
8b-	mich
=27	=27
(8b-	ge-
8cc)	|
8a-	-hen,
8a-	o
8a-	lass
8a-	mich
=28	=28
(8a-	se-
8b-)	|
8g	-hen,
8g	ob
8g	ich
8g	kann
=29	=29
(8g	flie-
8a-)	|
8f	-gen,
8f	ob
8f	ich
8f	kann
=30	=30
(8f	flie-
8g)	|
4e-	-gen
4r	.
=31	=31
4d	wie
4a-	Vo2-
4g	-ge-
=32	=32
2f}	-lein.}
4r	.
=33	=33
2.r	.
=34	=34
4r	.
8r	.
{8b-	{O
8b-	lass
8b-	mich
=35	=35
(8b-	se-
8g)	|
8e-	-hen,
8d-	o
8f	lass
8e-	mich
=36	=36
4d-	lau-
8c	-schen,
8cc	Wo
8cc	Lu2ft-
8cc	-lein
=37	=37
8cc	we-
8an	|
8f	-hen,
8e-	wo
8g	Ba2ch-
8f	-lein
=38	=38
4e-	rau-
4d	-schen
4r	.
=39	=39
4B-	wo
4b-	Blu2m-
4b-	-lein
=40	=40
[2.b-	blu2h'n.
=41	=41
4b-]}	|}
4r	.
4r	.
=42	=42
4r	.
8r	.
{8b-	{Lass
8b-	mich
8b-	sie
=43	=43
(8b-	pflu2-
8g)	|
8e-	-cken
8d-	und
8f	scho2n
8e-	mir
=44	=44
4d-	schmu2-
8c	-cken
8cc	die
8cc	brau-
8cc	-nen
=45	=45
(8cc	Lo-
8an)	|
8f	-cken,
8e-	o
8g	su2-
8f	-sse
=46	=46
4e-	Mut-
4d	-ter
4r	.
=47	=47
4B-	mit
4b-	bun-
4b-	-tem
=48	=48
[2.b-	Gru2n.
=49	=49
4b-]}	|}
4r	.
4r	.
=50	=50
4r	.
8r	.
{8b-	{Und
8b-	kom-
8b-	-men
=51	=51
(8b-	Kna-
8cc)	|
8a-	-ben
8a-	im
8a-	wil-
8a-	-den
=52	=52
(8a-	Hau-
8b-)	|
8g	-fen,
8g	so
8g	will
8g	ich
=53	=53
(8g	tra-
8a-)	|
8f	-ben,
8f	so
8f	will
8f	ich
=54	=54
(8f	lau-
8g)	|
4e-	-fen,
4r	.
=55	=55
4d	nicht
4a-	stil-
4g	-le
=56	=56
4f}	steh'n;}
8r	.
{8b-	{will
8b-	hin-
8b-	-ter
=57	=57
(8b-	He-
8an)	|
8a	-cken
8a	mich
8a	hier
8a	ver-
=58	=58
(8an	ste
8a-)	|
8a-	-cken,
8a-	will
8a-	hin-
8a-	-ter
=59	=59
(8a-	He-
8g)	|
8g	-cken
8g	mich
8g	hier
8g	ver-
=60	=60
(8g	ste
8f)	|
8f	-cken,
8f	bis
8f	sie
8f	mit
=61	=61
(8f	La2r-
8e-)	|
8e-	-men,
8e-	b
8e-	sie
8e-	mit
=62	=62
(8e-	La2r-
8d)	|
4d	-men
4r	.
=63	=63
4c	vor-
4c	-u2-
4c	-ber
=64	=64
2.B-}	geh'n.}
=65	=65
2.r	.
=66	=66
2.r	.
=67	=67
2.r	.
=68	=68
4r	.
8r	.
{8b-	{Bringt
8b-	a-
8b-	-ber
=69	=69
(8b-	Blu-
8g)	|
8e-	-men
8d-	ein
8f	from-
8e-	-mer
=70	=70
4d-	Kna-
8c	-be,
8cc	die
8cc	ich
8cc	zum
=71	=71
(8cc	Kran-
8an)	|
8f	-ze
8e-	just
8g	no2-
8f	-thig
=72	=72
4e-	ha-
4d	-be,
4r	.
=73	=73
4d	was
4e-	soll
4g-	ich
=74	=74
[2.b-	thun}
=75	=75
4b-]}	|}
4r	.
4r	.
=76	=76
4r	.
8r	.
{8b-	{Darf
8b-	ich
8b-	wohl
=77	=77
(8b-	ni-
8cc)	|
8a-	-ckend,
8a-	ihm
8a-	freund-
8a-	-lich
=78	=78
(8a-	bli-
8b-)	|
8g	-ckend,
8g	o
8g	su2-
8g	-sse
=79	=79
(8g	Mut-
8a-)	|
8f	-ter,
8f	o
8f	su2-
8f	-sse
=80	=80
(4f	Mut-
4g)	|
4e-	-ter,
=81	=81
4d	zur
4e-	Seit'
4g-	ihm
=82	=82
[2.b-	ruh'n?
=83	=83
4b-]}	|}
4r	.
4r	.
=84	=84
2.r	.
=85	=85
2.r	.
=86	=86
4r	.
8r	.
{8b-	{O
8b-	su2-
8b-	-sse
=87	=87
(8b-	Mut-
8cc)	|
8a-	-ter,
8a-	ich
8a-	kann
8a-	nicht
=88	=88
(8a-	spin-
8b-)	|
8g	-nen,
8g	ich
8g	kann
8g	nicht
=89	=89
(8g	sit-
8a-)	|
8f	-zen
8f	im
8f	Stu2b-
8f	-lein
=90	=90
(8f	in-
8g)	|
4e-	-nen
4r	.
=91	=91
4d	im
4a-	en-
4g	-gen
=92	=92
4f}	Haus;}
4r	.
4r	.
=93	=93
2.r	.
=94	=94
4r	.
8r	.
{8b-	{es
8b-	stockt
8b-	das
=95	=95
(8b-	Ra2d-
8an)	|
8a	-chen,
8a	es
8a	reisst
8a	das
=96	=96
(8an	Fa2d-
8a-)	|
8a-	-chen,
8a-	o
8a-	su2-
8a-	-sse
=97	=97
(8a-	Mut-
8g)	|
8g	-ter,
8g	o
8g	su2-
8g	-sse
=98	=98
(4g	Mut-
4f)	|
4e-	-ter,
=99	=99
4d-	ich
4.dd-	muss
8cc	hin-
=100	=100
4cc}	-aus,}
8r	.
{8a-	{o
8g	su2-
8f	-sse
=101	=101
4b-	Mut-
8e-	-ter,
8e-	ich
8f	muss
8d	hin-
=102	=102
4b-	-aus,
8r	.
8e-	ich
8f	muss
8d	hin-
=103	=103
4b-	-aus,
8r	.
8e-	ich
8f	muss
8d	hin-
=104	=104
(2.ee-	-aus,
=105	=105
12cc	|
12a-)	|
12f	ich
4.b-	muss
8d	hin-
=106	=106
2.e-}	-aus!}
=107	=107
2.r	.
=108	=108
2.r	.
=109	=109
2.r	.
=110	=110
2.r	.
=111	=111
2.r	.
==	==
*-	*-
